X: 31427
T: Paddy Ryan's Dream
R: reel
M: 4/4
K: Adorian
[cE]3B|{AB}A~E3 c2BG|E~B,3 G,A,B,G,|A,~E3 CEAB|cAB^G ABcB|
A~E3 c~E3|D~B,3 G,A,B,G,|A,=FED CEAB|cdBc A2{cd}cB|
A~E3 c2BG|(3EFG DB, G,B,DB,|A,~E3 CEAB|cABG ABcB|
AGEF ~G3A|{d}BA~G2-GEDB,|A,~E3 CEAB|cdBc A2~A,2-||
A,2~a2-agef|~g3a gdBG|Aa{b}ag aefd|edcB {d}BAA^G|
Aa{b}ag agef|(3gag fa gdBG|(3ABc (3Bcd ced=f|edcB ABcB|
Aa~a2 {b}aecA|G2 ~g2- gdBG|Aa{b}ag aefd|edcB {d}BAA^G|
Aa{b}ag agef|(3gag fa gdBG|(3ABc (3Bcd ced=f|edcB ABcB|

